src/img/icons/icon-filtr-line.svg

<svg width="20" height="15" viewBox="0 0 20 15" fill="none" xmlns="http://www.w3.org/2000/svg">
<path fill-rule="evenodd" clip-rule="evenodd" d="M4.42944 0.00033H0.00686V4.17208H4.42944V0.00033ZM19.9939 0.00033H5.835V4.17208H19.9939V0.00033ZM0.00686 5.4135H4.42944V9.58525H0.00686V5.4135ZM19.9939 5.4135H5.835V9.58525H19.9939V5.4135ZM0.00686 10.8267H4.42944V14.9984H0.00686V10.8267ZM19.9939 10.8267H5.835V14.9984H19.9939V10.8267Z" fill="#8D8D8D"/>
</svg>

<svg width="20" height="15" fill="none" xmlns="http://www.w3.org/2000/svg"><path fill-rule="evenodd" clip-rule="evenodd" d="M4.43 0H.006v4.172h4.422V0zm15.564 0H5.835v4.172h14.159V0zM.007 5.413h4.422v4.172H.007V5.413zm19.987 0H5.835v4.172h14.159V5.413zM.007 10.828h4.422v4.171H.007v-4.171zm19.987 0H5.835v4.171h14.159v-4.171z" fill="#8D8D8D"/></svg>
